X:20
T:OLD SPEDLING CASTLE/Captn. Ferguson's Jig  #3
M:6/8
L:1/8
Q:112
C:J. Porteus
R:JIG
K:A
a |: "A" ecA "/C#" (E2A) | "D" F2 A "A" E2 A | "D" [F2A2]  ([FA]  "A/C#"[E2A2]) [EA]| "Bm" [F2A2] [FA] "Esus4" [E2A2] a |!
"A" ecA "/C#" (E2A) | "D" F2 A "A" E2 c | "D" def "A/C#" fcA | "E" B3"E (A)"A2 :|!
d | "A" c2 (e "/C#" e)cA | "D" def "/F#"fga | "A" cde "/C#" edA | "E" GAB "/G#" BGE |!
"A" cde "/C#"edA | "D" def "Bm"  fga | "A/C#"  ecA "D" Edc|  "E" B3 "A"(A2d) |!
"A" eee "/C#"eueue | "D" fff "/F#"fufuf | "A" eee "/C#"eueue | "E" BBB "/G#" BuBuB |!
"A" eee "/C#" eueue | "D" fff "Bm" fufuf | "E" ggg "/G#" gugug | "A" aaa"A"aua ||
